resources/svg/view-list-s.svg

<svg xmlns="http://www.w3.org/2000/svg" viewBox="0 0 24 24" fill="currentColor"><path d="M0 0h24v24H0V0z" fill="none" opacity=".87"/><path d="M3 14h4v-4H3v4zm0 5h4v-4H3v4zM3 9h4V5H3v4zm5 5h12v-4H8v4zm0 5h12v-4H8v4zM8 5v4h12V5H8z"/></svg>

<svg xmlns="http://www.w3.org/2000/svg" enable-background="new 0 0 24 24" viewBox="0 0 24 24" fill="currentColor"><rect fill="none" /><path d="M3,14h4v-4H3V14z M3,19h4v-4H3V19z M3,9h4V5H3V9z M8,14h13v-4H8V14z M8,19h13v-4H8V19z M8,5v4h13V5H8z"/></svg>
